X: 38687
T: Strathlorne Valley
R: jig
M: 6/8
K: Gmajor
Bc|:d2gB2d|G2ED2C|B,DG GAB|cAF DFA|
c2e cBA|GFED2C|B,DG cBA|G3GBc:|
|:d2B gfg|bag Bdg|cBc ABc|edc GBd|
~g3~f3|gfed2B|cde Adf|g3g3:|

